!!!!SEGMENT: pl-wtm--r-1226--018_lodwigowski-edward-stefan--a-kto-chce-rozkoszy-uzyc.krn
!!!cenid: 18xx:1934
!!!COM: Łodwigowski, Edward Stefan
!!!COM-rismID: pe30111147
!!!CDT: 1815/08/14-1895/11/12
!!!CNT: Polish
!!!OTL: A kto chce rozkoszy użyć
!!!PDT:
!!!AGN:
!!!SMS-siglum: PL-Wtm
!!!SMS-shelfmark: R 1226
!!!SMS-shelfwork: 018 W
!!!SMS-variant:
!!!SMS-altvar:
!!!NIFC-rismSourceID: 1001084006
!!!NIFC-islandoraID:
!!!URL-pdf-islandora:
!!!URL-scan:
!!!ONB-nifc: UWAGA: No. 66
!!!OMD: Andante
!!!AIN: 1 forte
!!!key:
**kern	**fing	**kern	**fing	**dynam
*part1	*part1	*part1	*part1	*part1
*staff2	*staff2	*staff1	*staff1	*
*Iforte	*	*Iforte	*	*
*I"Fortepian	*	*I"Fortepian	*	*
*>[A,A]	*>[A,A]	*>[A,A]	*>[A,A]	*>[A,A]
*>A	*>A	*>A	*>A	*>A
*clefF4	*	*clefG2	*	*
*k[]	*	*k[]	*	*
*a:	*	*a:	*	*
*M3/8	*	*M3/8	*	*
*all\right	*	*all\right	*	*
=1	=1	=1	=1	=1
*^	*	*	*	*
!	!	!	!LO:TX:a:i:t=A kto chce rozkoszy użyć. P. L. P.	!	!
!	!	!	!LO:TX:a:Bi:t=No 66.	!	!LO:DY:rj
4.A/	8A\L	.	16ccLL 16a\	1 2	p
.	.	.	16ddJJ 16b\	1 3	.
.	8e\	.	(8.eeL 8.cc\	.	.
.	8e\J	.	.	.	.
.	.	.	16ddJk 16b\	.	.
=2	=2	=2	=2	=2	=2
4.A/	8A\L	.	16ffLL 16dd\	.	.
.	.	.	16eeJJ 16cc\	.	.
.	8e\	.	8ddL 8b\	.	.
.	8e\J	.	8ccJ 8a\)	3 5	.
*v	*v	*	*	*	*
=3	=3	=3	=3	=3
8E\L	.	(16bLL 16g#X/	2 4	.
.	.	16ccJJ 16a/	1 3	.
8e\	.	8.ddL 8.b\	.	.
8e\J	.	.	.	.
.	.	16ccJk 16a\	.	.
=4	=4	=4	=4	=4
*^	*	*	*	*
4E/	8E\L	.	16eeLL 16cc\	.	.
.	.	.	16ddJJ 16b\	.	.
.	8e\	.	8.ccL 8.a\	.	.
8rGGyy	8e\J	.	.	.	.
.	.	.	16bJk 16g#X'\)	.	.
=5	=5	=5	=5	=5	=5
4.A/	8A\L	.	(16ccLL 16a\	1 2	.
.	.	.	16ddJJ 16b\	.	.
.	8e\	.	8.eeL 8.cc\	.	.
.	8e\J	.	.	.	.
.	.	.	16ddJk 16b\)	.	.
!!LO:LB:g=original
=6	=6	=6	=6	=6	=6
4.A/	8A\L	.	(16ffLL 16dd\	.	.
.	.	.	16eeJJ 16cc\	.	.
.	8e\	.	8ddL 8b\	.	.
.	8e\J	.	8ccJ 8a\)	.	.
=7	=7	=7	=7	=7	=7
4E/	8E\L	.	(16bLL 16g#X/	.	.
.	.	.	16ccJJ 16a/	.	.
.	8e\	.	8.ddL 8.b\	.	.
8rGGyy	8e\J	.	.	.	.
.	.	.	16ccJk 16a\	.	.
=8	=8	=8	=8	=8	=8
4E/	8E\L	.	16eeLL 16cc\	.	.
.	.	.	16ddJJ 16b\	.	.
.	8e\	.	8ccL 8a\	.	.
8rGGyy	8e\J	.	8bJ 8g#X'\)	.	.
=9	=9	=9	=9	=9	=9
*	*	*	*^	*^	*
4.E/	8E\L	.	(8ee/	(4.g#X\	5	1	.
.	8B\	.	8dd/L	.	.	.	.
.	8d\J	.	16cc/L	.	.	.	.
.	.	.	16b/JJ	.	.	.	.
*	*	*	*	*	*v	*v	*
*v	*v	*	*	*	*	*
=10	=10	=10	=10	=10	=10
4.c 4.A\	.	4.a/)	4.a\)	.	.
*	*	*v	*v	*	*
==:|!	==:|!	==:|!	==:|!	==:|!
*-	*-	*-	*-	*-
!!!system-decoration: {p1}
!!!RDF**kern: > = above
!!!RDF**kern: < = below
!!!ENC: Andrzej Kubiczek
!!!END: 2021-05-02
!!!ENC: Marcin Jachim
!!!END: 2021-04-17
!!!YEC: Copyright 2022 Narodowy Instytut Fryderyka Chopina (https://polishscores.org)
!!!YEM: Licence CC BY 4.0 (https://creativecommons.org/licenses/by/4.0)
